X:48
T:T030A- The Moreen
S:Stevenson and Moore: A Selection of Irish Melodies, #5, 1813
Q:1/4=120
M:C
K:F
C|F3/2G/2 (B/2A/2) G/2 F/2|Acfe3/4 d/4|\
d3/2 c/2 (A3/4B/4c/2) A/2|(G3/2F/2)FC|\
F3/2G/2 (B/2A/2) G/2 F/2|Acfe3/4 f/4|\
dc(A3/4B/4c/2) A/2|{A/2}(G3/2F/2)F||\
z|fed z/2 e/4 f/4|e~dcz/2^c/2|d3/2 A/2A^c|\
(d3/2e/2)f.g|F3/2G/2 (B/2A/2) (G/2F/2)|\
Ac.f(e/2f/2)|d3/2c/2 (A3/4B/4c/2) A/2|(G3/2F/2)Fz|]

